Examples/body1.svg

<?xml version='1.0' encoding='utf8'?>
<svg xmlns:svg="http://www.w3.org/2000/svg" viewBox="0 0 100 100"><svg:g fill="black"><svg:g><svg:path d="M 37.768100948740454,34.742401007104334 A 8.000000000000002,8.000000000000002 -25 0,0 52.269025541326855,27.980508819253146 M 37.768100948740454,34.742401007104334 A 8.000000000000002,8.000000000000002 -25 0,1 52.269025541326855,27.980508819253146" /><svg:path d="M 38.00169461717276,40.07323476955263 L 58.79732406074574,37.15059964939125 L 61.99830538282724,59.92676523044737 L 41.20267593925426,62.84940035060875 L 38.00169461717276,40.07323476955263" /></svg:g><svg:g><svg:g><svg:g><svg:path d="M 51.2078917798391,63.4969283496534 L 45.69514466349912,82.72216226841978 L 36.08252770411593,79.96578871024978 L 41.59527482045591,60.740554791483405 L 51.2078917798391,63.4969283496534" /><svg:path d="M 45.38266909020311,81.10846368624154 L 46.37705225881904,100.08242484657843 L 37.38938644602788,100.55344845276494 L 36.395003277411945,81.57948729242803 L 45.38266909020311,81.10846368624154" /></svg:g><svg:g><svg:path d="M 60.25630721401698,61.204944638128524 L 57.753355773373286,77.00795808765074 L 50.83953738920732,75.91291683236912 L 53.342488829851014,60.10990338284691 L 60.25630721401698,61.204944638128524" /><svg:path d="M 58.79370530287623,76.61748519517117 L 58.20041385893372,93.6071292544958 L 49.205896415761856,93.2930337841733 L 49.799187859704375,76.30338972484867 L 58.79370530287623,76.61748519517117" /></svg:g></svg:g><svg:g><svg:g><svg:path d="M 38.38442064481294,48.73808037104137 L 18.57905926998153,45.954618351840054 L 19.414097875741927,40.013009939390635 L 39.21945925057333,42.796471958591944 L 38.38442064481294,48.73808037104137" /><svg:path d="M 20.078138053174044,46.312511952648386 L 5.812290308746746,50.947766868272595 L 3.6491713481221097,44.29037125420652 L 17.915019092549414,39.65511633858231 L 20.078138053174044,46.312511952648386" /></svg:g><svg:g><svg:path d="M 60.503436049124936,39.463900652643545 L 75.95824926975003,43.60500537428388 L 74.14651595403238,50.36648615830735 L 58.69170273340729,46.22538143666702 L 60.503436049124936,39.463900652643545" /><svg:path d="M 75.36628674373978,42.49670754012641 L 92.32487559815678,43.68256759377653 L 91.69706733445966,52.66064404611495 L 74.73847848004264,51.47478399246482 L 75.36628674373978,42.49670754012641" /></svg:g></svg:g></svg:g></svg:g></svg>

<?xml version="1.0" encoding="UTF-8" standalone="no"?>
<svg
   xmlns:dc="http://purl.org/dc/elements/1.1/"
   xmlns:cc="http://creativecommons.org/ns#"
   xmlns:rdf="http://www.w3.org/1999/02/22-rdf-syntax-ns#"
   xmlns:svg="http://www.w3.org/2000/svg"
   xmlns="http://www.w3.org/2000/svg"
   xmlns:sodipodi="http://sodipodi.sourceforge.net/DTD/sodipodi-0.dtd"
   xmlns:inkscape="http://www.inkscape.org/namespaces/inkscape"
   viewBox="0 0 100 100"
   version="1.1"
   id="svg40"
   sodipodi:docname="body1.svg"
   inkscape:version="0.92.2 5c3e80d, 2017-08-06">
  <metadata
     id="metadata46">
    <rdf:RDF>
      <cc:Work
         rdf:about="">
        <dc:format>image/svg+xml</dc:format>
        <dc:type
           rdf:resource="http://purl.org/dc/dcmitype/StillImage" />
      </cc:Work>
    </rdf:RDF>
  </metadata>
  <defs
     id="defs44" />
  <sodipodi:namedview
     pagecolor="#ffffff"
     bordercolor="#666666"
     borderopacity="1"
     objecttolerance="10"
     gridtolerance="10"
     guidetolerance="10"
     inkscape:pageopacity="0"
     inkscape:pageshadow="2"
     inkscape:window-width="640"
     inkscape:window-height="480"
     id="namedview42"
     showgrid="false"
     inkscape:zoom="2.36"
     inkscape:cx="50"
     inkscape:cy="50"
     inkscape:window-x="0"
     inkscape:window-y="0"
     inkscape:window-maximized="0"
     inkscape:current-layer="svg40" />
  <g
     id="g38"
     transform="translate(2.5423729,-12.288136)"
     style="fill:#000000">
    <g
       id="g6">
      <path
         d="M 37.768101,34.742401 A 8,8 -25 0 0 52.269026,27.980509 M 37.768101,34.742401 A 8,8 -25 0 1 52.269026,27.980509"
         id="path2"
         inkscape:connector-curvature="0" />
      <path
         d="M 38.001695,40.073235 58.797324,37.1506 61.998305,59.926765 41.202676,62.8494 38.001695,40.073235"
         id="path4"
         inkscape:connector-curvature="0" />
    </g>
    <g
       id="g36">
      <g
         id="g20">
        <g
           id="g12">
          <path
             d="m 51.207892,63.496928 -5.512747,19.225234 -9.612617,-2.756373 5.512747,-19.225234 9.612617,2.756373"
             id="path8"
             inkscape:connector-curvature="0" />
          <path
             d="m 45.382669,81.108464 0.994383,18.973956 -8.987666,0.47103 -0.994383,-18.973963 8.987666,-0.471023"
             id="path10"
             inkscape:connector-curvature="0" />
        </g>
        <g
           id="g18">
          <path
             d="m 60.256307,61.204945 -2.502951,15.803013 -6.913819,-1.095041 2.502952,-15.803014 6.913818,1.095042"
             id="path14"
             inkscape:connector-curvature="0" />
          <path
             d="m 58.793705,76.617485 -0.593291,16.989644 -8.994518,-0.314095 0.593292,-16.989644 8.994517,0.314095"
             id="path16"
             inkscape:connector-curvature="0" />
        </g>
      </g>
      <g
         id="g34">
        <g
           id="g26">
          <path
             d="M 38.384421,48.73808 18.579059,45.954618 19.414098,40.01301 39.219459,42.796472 38.384421,48.73808"
             id="path22"
             inkscape:connector-curvature="0" />
          <path
             d="M 20.078138,46.312512 5.8122903,50.947767 3.6491713,44.290371 17.915019,39.655116 20.078138,46.312512"
             id="path24"
             inkscape:connector-curvature="0" />
        </g>
        <g
           id="g32">
          <path
             d="m 60.503436,39.463901 15.454813,4.141104 -1.811733,6.761481 -15.454813,-4.141105 1.811733,-6.76148"
             id="path28"
             inkscape:connector-curvature="0" />
          <path
             d="m 75.366287,42.496708 16.958589,1.18586 -0.627809,8.978076 -16.958589,-1.18586 0.627809,-8.978076"
             id="path30"
             inkscape:connector-curvature="0" />
        </g>
      </g>
    </g>
  </g>
</svg>
